src/data/img/mobile.svg

<svg xmlns="http://www.w3.org/2000/svg" width="24" height="24"><path d="M6 2v20h12V2H6zm1 1h10v15H7V3zm5 16a1 1 0 0 1 1 1 1 1 0 0 1-1 1 1 1 0 0 1-1-1 1 1 0 0 1 1-1z"/></svg>

<?xml version="1.0" encoding="UTF-8" standalone="no"?>
<svg
   xmlns:dc="http://purl.org/dc/elements/1.1/"
   xmlns:cc="http://creativecommons.org/ns#"
   xmlns:rdf="http://www.w3.org/1999/02/22-rdf-syntax-ns#"
   xmlns:svg="http://www.w3.org/2000/svg"
   xmlns="http://www.w3.org/2000/svg"
   version="1.1"
   width="24"
   height="24"
   id="svg2">
  <metadata
     id="metadata10">
    <rdf:RDF>
      <cc:Work
         rdf:about="">
        <dc:format>image/svg+xml</dc:format>
        <dc:type
           rdf:resource="http://purl.org/dc/dcmitype/StillImage" />
        <dc:title></dc:title>
      </cc:Work>
    </rdf:RDF>
  </metadata>
  <defs
     id="defs8" />
  <path
     id="rect3759"
     d="M 6 2 L 6 22 L 18 22 L 18 2 L 6 2 z M 7 3 L 17 3 L 17 18 L 7 18 L 7 3 z M 12 19 A 1 1 0 0 1 13 20 A 1 1 0 0 1 12 21 A 1 1 0 0 1 11 20 A 1 1 0 0 1 12 19 z "
     style="fill:#000000;fill-opacity:1;stroke:none;stroke-width:0;stroke-miterlimit:4;stroke-dasharray:none;stroke-opacity:1" />
</svg>
